assets/svg/field-type-potenty-selected.svg

<?xml version="1.0" encoding="UTF-8" standalone="no"?>
<svg preserveAspectRatio="xMidYMin slice" version="1.1" viewBox="0 0 120 200" xmlns:xlink="http://www.w3.org/1999/xlink" xmlns="http://www.w3.org/2000/svg"><g transform="translate(10,10)"><g filter="url(#shadow)"><defs><filter height="200%" id="shadow" width="200%" x="-20%" y="-20%"><feOffset dx="0.2" dy="0.2" in="SourceAlpha" result="offsetOut" /><feGaussianBlur in="offsetOut" result="blurOut" std-deviation="1" /><feBlend in2="blurOut" in="SourceGraphic" mode="normal" /></filter><pattern height="20" id="void" patternUnits="userSpaceOnUse" width="20"><rect fill="#fff" height="20" width="20" x="0" y="0" /><rect fill="#ddd" height="10" width="10" x="0" y="0" /><rect fill="#ddd" height="10" width="10" x="10" y="10" /></pattern><pattern height="4" id="selected" patternUnits="userSpaceOnUse" width="4"><rect fill="#f5f5f5" height="4" width="4" x="0" y="0" /><g fill="#000"><circle cx="0" cy="0" r="0.3" /><circle cx="4" cy="0" r="0.3" /><circle cx="0" cy="4" r="0.3" /><circle cx="4" cy="4" r="0.3" /><circle cx="2" cy="2" r="0.3" /></g></pattern><pattern height="20" id="ermine" patternUnits="userSpaceOnUse" width="12.5" x="-3.125" y="-5"><rect fill="#f6f6f6" height="20" width="12.5" x="0" y="0" /><g fill="#333333"><path d="M 47.757634,0 C 60.324696,15.689314 25.136924,21.898666 44.167046,36.607392
    52.24587,41.673746 71.273896,30.723464 54.57765,17.322176
    52.423302,16.178163 62.11999,8.3349512 47.757634,0 Z m 21.182372,36.935142 c
    -3.23154,0.326846 -6.282816,2.290268 -9.155302,7.193166 -3.590588,8.33495
    12.209402,22.716724 22.98117,5.06625 C 83.483996,47.069952 94.0755,53.93163
    100,39.386326 89.946316,49.845864 79.713166,37.425428 70.377642,36.935142 Z
    M 29.80469,37.099022 C 20.469164,37.58931 10.053647,50.173186 0,39.55021
    5.9244804,54.095512 16.51881,47.070414 17.416458,49.358438 28.0087,67.008916
    43.805884,52.627142 40.215296,44.292192 36.983772,38.73555 33.395278,36.9356
    29.80469,37.099026 Z m 21.003542,10.13249 c -8.25835,37.262136
    -23.51556,63.576958 -40.211787,82.534868 7.001653,-1.96117
    14.718613,-7.19213 22.258843,-11.93164 -4.667764,9.80582 -9.154602,18.14082
    -13.822364,26.80264 2.692942,-0.98059 11.489886,-9.64435 23.338826,-22.3919
    1.795296,17.48703 4.305204,25.8241 8.07532,37.75452 3.052012,-11.93042
    5.208468,-19.9411 7.54234,-37.9184 7.181178,8.00805 14.001888,16.17984
    23.696484,23.04393 L 68.221186,117.34659 c 7.001634,4.41265
    14.72282,10.29262 22.083522,12.74406 C 72.710832,110.15215
    57.989412,84.493648 50.808232,47.231516 Z" transform="scale(0.0625,0.0625)" /><path d="M 47.757634,0 C 60.324696,15.689314 25.136924,21.898666 44.167046,36.607392
    52.24587,41.673746 71.273896,30.723464 54.57765,17.322176
    52.423302,16.178163 62.11999,8.3349512 47.757634,0 Z m 21.182372,36.935142 c
    -3.23154,0.326846 -6.282816,2.290268 -9.155302,7.193166 -3.590588,8.33495
    12.209402,22.716724 22.98117,5.06625 C 83.483996,47.069952 94.0755,53.93163
    100,39.386326 89.946316,49.845864 79.713166,37.425428 70.377642,36.935142 Z
    M 29.80469,37.099022 C 20.469164,37.58931 10.053647,50.173186 0,39.55021
    5.9244804,54.095512 16.51881,47.070414 17.416458,49.358438 28.0087,67.008916
    43.805884,52.627142 40.215296,44.292192 36.983772,38.73555 33.395278,36.9356
    29.80469,37.099026 Z m 21.003542,10.13249 c -8.25835,37.262136
    -23.51556,63.576958 -40.211787,82.534868 7.001653,-1.96117
    14.718613,-7.19213 22.258843,-11.93164 -4.667764,9.80582 -9.154602,18.14082
    -13.822364,26.80264 2.692942,-0.98059 11.489886,-9.64435 23.338826,-22.3919
    1.795296,17.48703 4.305204,25.8241 8.07532,37.75452 3.052012,-11.93042
    5.208468,-19.9411 7.54234,-37.9184 7.181178,8.00805 14.001888,16.17984
    23.696484,23.04393 L 68.221186,117.34659 c 7.001634,4.41265
    14.72282,10.29262 22.083522,12.74406 C 72.710832,110.15215
    57.989412,84.493648 50.808232,47.231516 Z" transform="translate(6.25,10) scale(0.0625,0.0625)" /></g></pattern><pattern height="20" id="ermines" patternUnits="userSpaceOnUse" width="12.5" x="-3.125" y="-5"><rect fill="#333333" height="20" width="12.5" x="0" y="0" /><g fill="#f6f6f6"><path d="M 47.757634,0 C 60.324696,15.689314 25.136924,21.898666 44.167046,36.607392
    52.24587,41.673746 71.273896,30.723464 54.57765,17.322176
    52.423302,16.178163 62.11999,8.3349512 47.757634,0 Z m 21.182372,36.935142 c
    -3.23154,0.326846 -6.282816,2.290268 -9.155302,7.193166 -3.590588,8.33495
    12.209402,22.716724 22.98117,5.06625 C 83.483996,47.069952 94.0755,53.93163
    100,39.386326 89.946316,49.845864 79.713166,37.425428 70.377642,36.935142 Z
    M 29.80469,37.099022 C 20.469164,37.58931 10.053647,50.173186 0,39.55021
    5.9244804,54.095512 16.51881,47.070414 17.416458,49.358438 28.0087,67.008916
    43.805884,52.627142 40.215296,44.292192 36.983772,38.73555 33.395278,36.9356
    29.80469,37.099026 Z m 21.003542,10.13249 c -8.25835,37.262136
    -23.51556,63.576958 -40.211787,82.534868 7.001653,-1.96117
    14.718613,-7.19213 22.258843,-11.93164 -4.667764,9.80582 -9.154602,18.14082
    -13.822364,26.80264 2.692942,-0.98059 11.489886,-9.64435 23.338826,-22.3919
    1.795296,17.48703 4.305204,25.8241 8.07532,37.75452 3.052012,-11.93042
    5.208468,-19.9411 7.54234,-37.9184 7.181178,8.00805 14.001888,16.17984
    23.696484,23.04393 L 68.221186,117.34659 c 7.001634,4.41265
    14.72282,10.29262 22.083522,12.74406 C 72.710832,110.15215
    57.989412,84.493648 50.808232,47.231516 Z" transform="scale(0.0625,0.0625)" /><path d="M 47.757634,0 C 60.324696,15.689314 25.136924,21.898666 44.167046,36.607392
    52.24587,41.673746 71.273896,30.723464 54.57765,17.322176
    52.423302,16.178163 62.11999,8.3349512 47.757634,0 Z m 21.182372,36.935142 c
    -3.23154,0.326846 -6.282816,2.290268 -9.155302,7.193166 -3.590588,8.33495
    12.209402,22.716724 22.98117,5.06625 C 83.483996,47.069952 94.0755,53.93163
    100,39.386326 89.946316,49.845864 79.713166,37.425428 70.377642,36.935142 Z
    M 29.80469,37.099022 C 20.469164,37.58931 10.053647,50.173186 0,39.55021
    5.9244804,54.095512 16.51881,47.070414 17.416458,49.358438 28.0087,67.008916
    43.805884,52.627142 40.215296,44.292192 36.983772,38.73555 33.395278,36.9356
    29.80469,37.099026 Z m 21.003542,10.13249 c -8.25835,37.262136
    -23.51556,63.576958 -40.211787,82.534868 7.001653,-1.96117
    14.718613,-7.19213 22.258843,-11.93164 -4.667764,9.80582 -9.154602,18.14082
    -13.822364,26.80264 2.692942,-0.98059 11.489886,-9.64435 23.338826,-22.3919
    1.795296,17.48703 4.305204,25.8241 8.07532,37.75452 3.052012,-11.93042
    5.208468,-19.9411 7.54234,-37.9184 7.181178,8.00805 14.001888,16.17984
    23.696484,23.04393 L 68.221186,117.34659 c 7.001634,4.41265
    14.72282,10.29262 22.083522,12.74406 C 72.710832,110.15215
    57.989412,84.493648 50.808232,47.231516 Z" transform="translate(6.25,10) scale(0.0625,0.0625)" /></g></pattern><pattern height="20" id="erminois" patternUnits="userSpaceOnUse" width="12.5" x="-3.125" y="-5"><rect fill="#f2bc51" height="20" width="12.5" x="0" y="0" /><g fill="#333333"><path d="M 47.757634,0 C 60.324696,15.689314 25.136924,21.898666 44.167046,36.607392
    52.24587,41.673746 71.273896,30.723464 54.57765,17.322176
    52.423302,16.178163 62.11999,8.3349512 47.757634,0 Z m 21.182372,36.935142 c
    -3.23154,0.326846 -6.282816,2.290268 -9.155302,7.193166 -3.590588,8.33495
    12.209402,22.716724 22.98117,5.06625 C 83.483996,47.069952 94.0755,53.93163
    100,39.386326 89.946316,49.845864 79.713166,37.425428 70.377642,36.935142 Z
    M 29.80469,37.099022 C 20.469164,37.58931 10.053647,50.173186 0,39.55021
    5.9244804,54.095512 16.51881,47.070414 17.416458,49.358438 28.0087,67.008916
    43.805884,52.627142 40.215296,44.292192 36.983772,38.73555 33.395278,36.9356
    29.80469,37.099026 Z m 21.003542,10.13249 c -8.25835,37.262136
    -23.51556,63.576958 -40.211787,82.534868 7.001653,-1.96117
    14.718613,-7.19213 22.258843,-11.93164 -4.667764,9.80582 -9.154602,18.14082
    -13.822364,26.80264 2.692942,-0.98059 11.489886,-9.64435 23.338826,-22.3919
    1.795296,17.48703 4.305204,25.8241 8.07532,37.75452 3.052012,-11.93042
    5.208468,-19.9411 7.54234,-37.9184 7.181178,8.00805 14.001888,16.17984
    23.696484,23.04393 L 68.221186,117.34659 c 7.001634,4.41265
    14.72282,10.29262 22.083522,12.74406 C 72.710832,110.15215
    57.989412,84.493648 50.808232,47.231516 Z" transform="scale(0.0625,0.0625)" /><path d="M 47.757634,0 C 60.324696,15.689314 25.136924,21.898666 44.167046,36.607392
    52.24587,41.673746 71.273896,30.723464 54.57765,17.322176
    52.423302,16.178163 62.11999,8.3349512 47.757634,0 Z m 21.182372,36.935142 c
    -3.23154,0.326846 -6.282816,2.290268 -9.155302,7.193166 -3.590588,8.33495
    12.209402,22.716724 22.98117,5.06625 C 83.483996,47.069952 94.0755,53.93163
    100,39.386326 89.946316,49.845864 79.713166,37.425428 70.377642,36.935142 Z
    M 29.80469,37.099022 C 20.469164,37.58931 10.053647,50.173186 0,39.55021
    5.9244804,54.095512 16.51881,47.070414 17.416458,49.358438 28.0087,67.008916
    43.805884,52.627142 40.215296,44.292192 36.983772,38.73555 33.395278,36.9356
    29.80469,37.099026 Z m 21.003542,10.13249 c -8.25835,37.262136
    -23.51556,63.576958 -40.211787,82.534868 7.001653,-1.96117
    14.718613,-7.19213 22.258843,-11.93164 -4.667764,9.80582 -9.154602,18.14082
    -13.822364,26.80264 2.692942,-0.98059 11.489886,-9.64435 23.338826,-22.3919
    1.795296,17.48703 4.305204,25.8241 8.07532,37.75452 3.052012,-11.93042
    5.208468,-19.9411 7.54234,-37.9184 7.181178,8.00805 14.001888,16.17984
    23.696484,23.04393 L 68.221186,117.34659 c 7.001634,4.41265
    14.72282,10.29262 22.083522,12.74406 C 72.710832,110.15215
    57.989412,84.493648 50.808232,47.231516 Z" transform="translate(6.25,10) scale(0.0625,0.0625)" /></g></pattern><pattern height="20" id="pean" patternUnits="userSpaceOnUse" width="12.5" x="-3.125" y="-5"><rect fill="#333333" height="20" width="12.5" x="0" y="0" /><g fill="#f2bc51"><path d="M 47.757634,0 C 60.324696,15.689314 25.136924,21.898666 44.167046,36.607392
    52.24587,41.673746 71.273896,30.723464 54.57765,17.322176
    52.423302,16.178163 62.11999,8.3349512 47.757634,0 Z m 21.182372,36.935142 c
    -3.23154,0.326846 -6.282816,2.290268 -9.155302,7.193166 -3.590588,8.33495
    12.209402,22.716724 22.98117,5.06625 C 83.483996,47.069952 94.0755,53.93163
    100,39.386326 89.946316,49.845864 79.713166,37.425428 70.377642,36.935142 Z
    M 29.80469,37.099022 C 20.469164,37.58931 10.053647,50.173186 0,39.55021
    5.9244804,54.095512 16.51881,47.070414 17.416458,49.358438 28.0087,67.008916
    43.805884,52.627142 40.215296,44.292192 36.983772,38.73555 33.395278,36.9356
    29.80469,37.099026 Z m 21.003542,10.13249 c -8.25835,37.262136
    -23.51556,63.576958 -40.211787,82.534868 7.001653,-1.96117
    14.718613,-7.19213 22.258843,-11.93164 -4.667764,9.80582 -9.154602,18.14082
    -13.822364,26.80264 2.692942,-0.98059 11.489886,-9.64435 23.338826,-22.3919
    1.795296,17.48703 4.305204,25.8241 8.07532,37.75452 3.052012,-11.93042
    5.208468,-19.9411 7.54234,-37.9184 7.181178,8.00805 14.001888,16.17984
    23.696484,23.04393 L 68.221186,117.34659 c 7.001634,4.41265
    14.72282,10.29262 22.083522,12.74406 C 72.710832,110.15215
    57.989412,84.493648 50.808232,47.231516 Z" transform="scale(0.0625,0.0625)" /><path d="M 47.757634,0 C 60.324696,15.689314 25.136924,21.898666 44.167046,36.607392
    52.24587,41.673746 71.273896,30.723464 54.57765,17.322176
    52.423302,16.178163 62.11999,8.3349512 47.757634,0 Z m 21.182372,36.935142 c
    -3.23154,0.326846 -6.282816,2.290268 -9.155302,7.193166 -3.590588,8.33495
    12.209402,22.716724 22.98117,5.06625 C 83.483996,47.069952 94.0755,53.93163
    100,39.386326 89.946316,49.845864 79.713166,37.425428 70.377642,36.935142 Z
    M 29.80469,37.099022 C 20.469164,37.58931 10.053647,50.173186 0,39.55021
    5.9244804,54.095512 16.51881,47.070414 17.416458,49.358438 28.0087,67.008916
    43.805884,52.627142 40.215296,44.292192 36.983772,38.73555 33.395278,36.9356
    29.80469,37.099026 Z m 21.003542,10.13249 c -8.25835,37.262136
    -23.51556,63.576958 -40.211787,82.534868 7.001653,-1.96117
    14.718613,-7.19213 22.258843,-11.93164 -4.667764,9.80582 -9.154602,18.14082
    -13.822364,26.80264 2.692942,-0.98059 11.489886,-9.64435 23.338826,-22.3919
    1.795296,17.48703 4.305204,25.8241 8.07532,37.75452 3.052012,-11.93042
    5.208468,-19.9411 7.54234,-37.9184 7.181178,8.00805 14.001888,16.17984
    23.696484,23.04393 L 68.221186,117.34659 c 7.001634,4.41265
    14.72282,10.29262 22.083522,12.74406 C 72.710832,110.15215
    57.989412,84.493648 50.808232,47.231516 Z" transform="translate(6.25,10) scale(0.0625,0.0625)" /></g></pattern></defs><defs><clipPath id="mask_1"><path d="M0 0h100v120h-100z" fill="#fff" stroke="none" /></clipPath></defs><g clip-path="url(#mask_1)"><g><g><path d="M0 0h100v120h-100z" fill="#f0f0f0" /><g style="pointer-events:visiblePainted;cursor:pointer;"><g><defs><pattern height="80" id="potenty_4-outline" patternUnits="userSpaceOnUse" width="57.142857142857146" x="0" y="0"><g fill="none" stroke-linecap="round" stroke-linejoin="round" stroke-width="0.5" stroke="#333333"><path d="M 0,40v-20h14.285714285714286v-20h14.285714285714286v20h14.285714285714286v20z" /><path d="M 0,40v20h14.285714285714286v20h14.285714285714286v-20h14.285714285714286v-20z" /><path d="M 0,0h57.142857142857146" /><path d="M 0,80h57.142857142857146" /><path d="M57.142857142857146,20V60" /><path d="M57.142857142857146,40h-14.285714285714286" /></g></pattern><pattern height="80" id="potenty_4-0" patternUnits="userSpaceOnUse" width="57.142857142857146" x="0" y="0"><rect fill="#000000" height="80" width="57.142857142857146" x="0" y="0" /><g fill="#ffffff"><path d="M 0,40v-20h14.285714285714286v-20h14.285714285714286v20h14.285714285714286v20z" /><path d="M 0,80v-20h14.285714285714286v20z" /><path d="M 28.571428571428573,80v-20h14.285714285714286v-20H57.142857142857146V80z" /></g></pattern><pattern height="80" id="potenty_4-1" patternUnits="userSpaceOnUse" width="57.142857142857146" x="0" y="0"><rect fill="#ffffff" height="80" width="57.142857142857146" x="0" y="0" /><g fill="#000000"><path d="M 0,40v-20h14.285714285714286v-20h14.285714285714286v20h14.285714285714286v20z" /><path d="M 0,80v-20h14.285714285714286v20z" /><path d="M 28.571428571428573,80v-20h14.285714285714286v-20H57.142857142857146V80z" /></g></pattern></defs><mask id="mask_5"><rect fill="url(#potenty_4-0)" height="1100" width="1100" x="-500" y="-500" /></mask><g mask="url(#mask_5)"><rect fill="#f2bc51" height="1100" width="1100" x="-500" y="-500" /></g><mask id="mask_6"><rect fill="url(#potenty_4-1)" height="1100" width="1100" x="-500" y="-500" /></mask><g mask="url(#mask_6)"><rect fill="#f6f6f6" height="1100" width="1100" x="-500" y="-500" /></g><rect fill="url(#potenty_4-outline)" height="1100" width="1100" x="-500" y="-500" /></g></g></g></g></g><g fill="none" stroke-linecap="round" stroke-linejoin="round" stroke-width="0.5" stroke="#333333"><path d="M0 0h100v120h-100z" /></g></g></g></svg>

<svg preserveAspectRatio="xMidYMin slice" viewBox="0 0 120 200" xmlns="http://www.w3.org/2000/svg"><g filter="url(#a)" transform="translate(10 10)"><defs><filter height="200%" id="a" width="200%" x="-20%" y="-20%"><feOffset dx=".2" dy=".2" in="SourceAlpha" result="offsetOut"/><feGaussianBlur in="offsetOut" result="blurOut"/><feBlend in2="blurOut" in="SourceGraphic"/></filter></defs><defs><clipPath id="b"><path d="M0 0h100v120H0z" fill="#fff"/></clipPath></defs><g clip-path="url(#b)"><path d="M0 0h100v120H0z" fill="#f0f0f0"/><g style="pointer-events:visiblePainted;cursor:pointer"><defs><pattern height="80" id="g" patternUnits="userSpaceOnUse" width="57.143" x="0" y="0"><path d="M0 40V20h14.286V0H28.57v20h14.286v20zm0 0v20h14.286v20H28.57V60h14.286V40zM0 0h57.143M0 80h57.143m0-60v40m0-20H42.857" fill="none" stroke-linecap="round" stroke-linejoin="round" stroke-width=".5" stroke="#333"/></pattern><pattern height="80" id="c" patternUnits="userSpaceOnUse" width="57.143" x="0" y="0"><path d="M0 0h57.143v80H0z"/><path d="M0 40V20h14.286V0H28.57v20h14.286v20zm0 40V60h14.286v20zm28.571 0V60h14.286V40h14.286v40z" fill="#fff"/></pattern><pattern height="80" id="e" patternUnits="userSpaceOnUse" width="57.143" x="0" y="0"><path fill="#fff" d="M0 0h57.143v80H0z"/><path d="M0 40V20h14.286V0H28.57v20h14.286v20zm0 40V60h14.286v20zm28.571 0V60h14.286V40h14.286v40z"/></pattern></defs><mask id="d"><path fill="url(#c)" d="M-500-500H600V600H-500z"/></mask><g mask="url(#d)"><path fill="#f2bc51" d="M-500-500H600V600H-500z"/></g><mask id="f"><path fill="url(#e)" d="M-500-500H600V600H-500z"/></mask><g mask="url(#f)"><path fill="#f6f6f6" d="M-500-500H600V600H-500z"/></g><path fill="url(#g)" d="M-500-500H600V600H-500z"/></g></g><path d="M0 0h100v120H0z" fill="none" stroke-linecap="round" stroke-linejoin="round" stroke-width=".5" stroke="#333"/></g></svg>
